X: 3004
T: The HONble MISS ROLLO
Q:"Reel."
R: Reel.
%R:reel
B: James Kerr "Merry Melodies" v.3 p.3 #4
Z: 2016 John Chambers <jc:trillian.mit.edu>
M: C
L: 1/8
K: D
g |\
f2(df) ecdA | BdAF Eeeg |\
f2(df) ecdA | Bbag fdd ::\
f |\
abag fdad |
cded cAAf |\
[1 abag fdad | (ge) (f/g/a) fdd |\
[2 dABG FGAg | faeg fdd |]

%%sep 1 1 500
%%sep 1 1 500

